symbolic/24x24/actions/debug-execute-to-cursor.svg

<svg xmlns="http://www.w3.org/2000/svg" width="24" height="24"><defs><style id="current-color-scheme" type="text/css"></style></defs><path style="fill:currentColor;color:#323a41" d="M9 1v2h2v10H9v2h6v-2h-2V3h2V1H9zM6 4v3H3V5H1v6h2V9h3v3l4-4-4-4z" transform="translate(4 4)"/></svg>

<svg xmlns="http://www.w3.org/2000/svg" width="24" height="24" viewBox="0 0 24 24">
 <defs>
  <style id="current-color-scheme" type="text/css">
   .ColorScheme-Text { color:#323a41; } .ColorScheme-Highlight { color:#4285f4; } .ColorScheme-NeutralText { color:#ff9800; } .ColorScheme-PositiveText { color:#4caf50; } .ColorScheme-NegativeText { color:#f44336; }
  </style>
 </defs>
 <path style="fill:currentColor" class="ColorScheme-Text" d="M 9 1 L 9 3 L 11 3 L 11 13 L 9 13 L 9 15 L 15 15 L 15 13 L 13 13 L 13 3 L 15 3 L 15 1 L 9 1 z M 6 4 L 6 7 L 3 7 L 3 5 L 1 5 L 1 11 L 3 11 L 3 9 L 6 9 L 6 12 L 10 8 L 6 4 z" transform="translate(4 4)"/>
</svg>
